X: 04021
T: DANCE FRAN\,CAISE #1
C: Bob McQuillen 29 Sept 79
B: Bob's Note Book 04 #21
%R: march, reel
Z: 2019 John Chambers <jc:trillian.mit.edu>
M: C
L: 1/8
K: D
AA \
| d2A2 F2A2 | d2f2 e3f | gbag f2d2 | cBcd e2A2 \
| d2A2 FGA2 | defd e3f | gbag f2ed | A2d2 d2 :|
|: de \
| f2a2 d2f2 | gfed c2e2 | d2ef gfed | c2a2 a4 \
| g2eg f2a2 | gfed c2A2 | d2ef gfea | f2d2 d2 :|
%%begintext align
%% Music Breton style.
%%endtext

%%sep 1 1 500

%%sep 1 1 500

